src/containers/site/SiteFaqScreen/asset/questions.svg

<svg width="98" height="84" viewBox="0 0 98 84" fill="none" xmlns="http://www.w3.org/2000/svg">
<path fill-rule="evenodd" clip-rule="evenodd" d="M18.2466 65.8338C18.5205 65.9446 18.7945 66 19.0959 66C19.6712 66 20.1918 65.7783 20.6301 65.3904L32.8767 53.5315H48.6301C62.6301 53.5315 74 42.005 74 27.8741V25.6574C74 11.4987 62.6027 0 48.6301 0H25.3699C11.3699 0 0 11.5264 0 25.6574V27.8741C0 38.7078 6.87671 48.4333 16.9041 52.0353V63.7834C16.9041 64.67 17.4521 65.4736 18.2466 65.8338ZM21.2875 58.602V50.5944C21.3697 49.597 20.7669 48.6549 19.7532 48.3501C19.7258 48.3224 19.671 48.2947 19.6162 48.2947C10.6299 45.6902 4.35596 37.2947 4.35596 27.874V25.6574C4.35596 13.937 13.7806 4.43323 25.3423 4.43323H48.6025C60.1916 4.43323 69.5888 13.9647 69.5888 25.6574V27.874C69.5888 39.5944 60.1642 49.0982 48.6025 49.0982H32.1916C31.5614 49.0428 30.9313 49.2645 30.4655 49.7078L21.2875 58.602Z" fill="url(#paint0_linear)"/>
<path d="M83.6522 84C83.1046 84 82.557 83.7787 82.1463 83.3914L72.289 73.9582H60.9258C53.8067 73.9582 47.071 70.113 43.3197 63.9163C42.69 62.8651 43.0185 61.5096 44.059 60.8734C45.0995 60.2371 46.4412 60.5691 47.071 61.6203C50.0007 66.5167 55.3127 69.532 60.9258 69.532C65.5807 69.532 72.6176 69.532 73.1105 69.532C73.6855 69.532 74.2605 69.7257 74.6712 70.1406L81.4618 76.6415V70.6386C81.4618 69.698 82.0368 68.8681 82.913 68.5638C89.3202 66.2124 93.619 60.0435 93.619 53.1829C93.619 45.7691 88.663 39.2682 81.5713 37.3595C80.3939 37.0552 79.7094 35.838 80.0105 34.6484C80.3117 33.4589 81.5165 32.7673 82.6939 33.0716C91.7023 35.4783 98 43.7497 98 53.1553C98 61.3437 93.1809 68.7575 85.8701 72.1047V81.7593C85.8701 82.6445 85.3499 83.4467 84.5558 83.7787C84.2546 83.9447 83.9534 84 83.6522 84Z" fill="url(#paint1_linear)"/>
<path d="M34.8643 30.439C34.8643 29.503 35.0713 28.729 35.4853 28.117C35.9173 27.505 36.5383 26.83 37.3483 26.092C37.9423 25.552 38.3743 25.102 38.6443 24.742C38.9323 24.364 39.0763 23.941 39.0763 23.473C39.0763 22.807 38.8063 22.285 38.2663 21.907C37.7443 21.511 37.0423 21.313 36.1603 21.313C35.3143 21.313 34.5583 21.493 33.8923 21.853C33.2443 22.195 32.6953 22.681 32.2453 23.311L28.9783 21.394C29.7343 20.242 30.7513 19.351 32.0293 18.721C33.3253 18.091 34.8553 17.776 36.6193 17.776C38.6893 17.776 40.3453 18.217 41.5873 19.099C42.8473 19.981 43.4773 21.205 43.4773 22.771C43.4773 23.509 43.3513 24.157 43.0993 24.715C42.8653 25.273 42.5683 25.75 42.2083 26.146C41.8663 26.524 41.4163 26.965 40.8583 27.469C40.1923 28.063 39.7063 28.567 39.4003 28.981C39.0943 29.377 38.9413 29.863 38.9413 30.439H34.8643ZM36.9163 37.216C36.1783 37.216 35.5573 36.982 35.0533 36.514C34.5673 36.028 34.3243 35.443 34.3243 34.759C34.3243 34.075 34.5673 33.508 35.0533 33.058C35.5393 32.59 36.1603 32.356 36.9163 32.356C37.6723 32.356 38.2933 32.59 38.7793 33.058C39.2653 33.508 39.5083 34.075 39.5083 34.759C39.5083 35.443 39.2563 36.028 38.7523 36.514C38.2663 36.982 37.6543 37.216 36.9163 37.216Z" fill="#FFB95F"/>
<defs>
<linearGradient id="paint0_linear" x1="-40.7903" y1="28.9771" x2="21.5045" y2="100.489" gradientUnits="userSpaceOnUse">
<stop stop-color="#FFCC5C"/>
<stop offset="1" stop-color="#FF9E65"/>
</linearGradient>
<linearGradient id="paint1_linear" x1="12.6829" y1="55.3914" x2="61.0412" y2="108.786" gradientUnits="userSpaceOnUse">
<stop stop-color="#FFCC5C"/>
<stop offset="1" stop-color="#FF9E65"/>
</linearGradient>
</defs>
</svg>

<svg width="98" height="84" fill="none" xmlns="http://www.w3.org/2000/svg"><path fill-rule="evenodd" clip-rule="evenodd" d="M18.247 65.834c.273.11.547.166.849.166.575 0 1.096-.222 1.534-.61l12.247-11.858H48.63c14 0 25.37-11.527 25.37-25.658v-2.217C74 11.5 62.603 0 48.63 0H25.37C11.37 0 0 11.526 0 25.657v2.217c0 10.834 6.877 20.56 16.904 24.161v11.748c0 .887.548 1.69 1.343 2.05zm3.04-7.232v-8.008a2.144 2.144 0 00-1.534-2.244.208.208 0 00-.137-.055c-8.986-2.605-15.26-11-15.26-20.421v-2.217c0-11.72 9.425-21.224 20.986-21.224h23.26c11.59 0 20.987 9.532 20.987 21.224v2.217c0 11.72-9.425 21.224-20.986 21.224H32.191a2.226 2.226 0 00-1.727.61l-9.177 8.894z" fill="url(#paint0_linear)"/><path d="M83.652 84a2.22 2.22 0 01-1.506-.609l-9.857-9.433H60.926c-7.12 0-13.855-3.845-17.606-10.042a2.222 2.222 0 01.739-3.043 2.174 2.174 0 013.012.747c2.93 4.897 8.242 7.912 13.855 7.912H73.11c.576 0 1.15.194 1.561.609l6.79 6.5V70.64c0-.941.576-1.77 1.452-2.075 6.407-2.352 10.706-8.52 10.706-15.381 0-7.414-4.956-13.915-12.048-15.824-1.177-.304-1.862-1.521-1.56-2.71a2.19 2.19 0 012.683-1.577C91.702 35.478 98 43.75 98 53.155c0 8.189-4.82 15.602-12.13 18.95v9.654c0 .885-.52 1.688-1.314 2.02a1.818 1.818 0 01-.904.221z" fill="url(#paint1_linear)"/><path d="M34.864 30.439c0-.936.207-1.71.621-2.322.432-.612 1.053-1.287 1.863-2.025.594-.54 1.026-.99 1.296-1.35.288-.378.432-.801.432-1.269 0-.666-.27-1.188-.81-1.566-.522-.396-1.224-.594-2.106-.594-.846 0-1.602.18-2.268.54a4.713 4.713 0 00-1.647 1.458l-3.267-1.917c.756-1.152 1.773-2.043 3.051-2.673 1.296-.63 2.826-.945 4.59-.945 2.07 0 3.726.441 4.968 1.323 1.26.882 1.89 2.106 1.89 3.672 0 .738-.126 1.386-.378 1.944a4.95 4.95 0 01-.89 1.431c-.343.378-.793.819-1.35 1.323-.667.594-1.153 1.098-1.459 1.512-.306.396-.459.882-.459 1.458h-4.077zm2.052 6.777c-.738 0-1.359-.234-1.863-.702a2.392 2.392 0 01-.729-1.755c0-.684.243-1.251.73-1.701.485-.468 1.106-.702 1.862-.702s1.377.234 1.863.702c.486.45.73 1.017.73 1.701 0 .684-.253 1.269-.757 1.755-.486.468-1.098.702-1.836.702z" fill="#FFB95F"/><defs><linearGradient id="paint0_linear" x1="-40.79" y1="28.977" x2="21.505" y2="100.489" gradientUnits="userSpaceOnUse"><stop stop-color="#FFCC5C"/><stop offset="1" stop-color="#FF9E65"/></linearGradient><linearGradient id="paint1_linear" x1="12.683" y1="55.391" x2="61.041" y2="108.786" gradientUnits="userSpaceOnUse"><stop stop-color="#FFCC5C"/><stop offset="1" stop-color="#FF9E65"/></linearGradient></defs></svg>
